X:1
T:Stumbling
T:Stumbling
T:Words and Music by Zez Confrey     
T:Copyright 1922 by Leo Feist Inc
T:Copyright 1922 by Leo Feist Inc
T:Copyright 1922 by Leo Feist Inc
T:Copyright 1922 by Leo Feist Inc
T:Copyright 1922 by Leo Feist Inc
C:z
Z:Copyright 1922 by Leo Feist Inc
%%score 1 { ( 2 4 ) | ( 3 5 ) }
L:1/8
Q:1/4=170
M:2/2
K:G
V:1 treble nm="Voice"
V:2 treble nm="Piano"
V:4 treble 
V:3 bass 
V:5 bass 
V:1
"^Moderato" z8 | z8 | z8 | z8 |: z8 | z8 :| G B2 F- F4 | F B2 E- E4 | D2 F2 G B2 c- | c8 | %10
w: ||||||'Ten- tion folks, _|speak of jokes, _|This is one on me,|_|
w: ||||||Young and small _|short and tall, _|Folks most ev- 'ry- where,|_|
 A c2 G- G4 | G c2 F- F4 | E2 F2 A d2 B- | B8 | G B2 F- F4 | F B2 E- E4 | D2 F2 G B2 A- | A8 | %18
w: Took my gal _|to a dance _|At the Ar- mo- ry,|_|Mus- ic played, _|danc- ers swayed, _|Then we joined the crowd;|_|
w: Take a chance _|do this dance, _|They think it's a bear,|_|Peo- ple rave _|and they crave _|Just to do this step,|_|
 B ^c2 A- A4 | B d2 A- A4 | G B2 F- F2 E2 | E4 _E4 |: !>!D E G A B2 !>!D E | G A B2 !>!D E G A | %24
w: I can't dance, _|took a chance, _|And right then * we|started- ed:-|Stum- bling all a- round, Stum- bling|all a- round, Stum- bling all a-|
w: Off they go, _|nice and slow, _|When the band * starts|play- ing:|||
 B4 e4 | c4 B4 | !>!A ^G =G F E2 !>!A ^G | =G F E2 !>!A ^G =G F | E8- | E2 E2 G2 E2 | E F2 F- F4- | %31
w: round so|fun- ny,|Stum- bling here and there, Stum- bling,|ev- 'ry- where And I must de-|clare,|_ I stepped right|on her toes, _|
w: |||||||
 F2 F2 A2 F2 | F G2 G- G4- | G2 G2 B2 G2 | G A2 A- A4- | A2 A2 ^c2 A2 | d8- | d2 c2 A2 F2 | %38
w: _ And when she|bumped my nose, _|_ I fell and|when I rose, _|_ I felt a-|shamed|_ And told her|
w: |||||||
 !>!D E G A B2 !>!D E | G A B2 !>!D E G A | B4 e4 | c4 B4 | !>!A ^G =G F E2 !>!A ^G | %43
w: That's the lat- est step, that's the|lat- est step, that's the lat- est|step, My|hon- ey,|No- tice all the pep, no- tice|
w: |||||
 =G F E2 !>!A ^G =G F | E8- | E2 B2 B A2 !>!=c- | c4 _E4- | E2 c2 c c2 !>!B- | B4 D4- | %49
w: all the pep, no- tice all the|pep;|_ She said, "Stop mum-|* bling,|_ tho' you are stum-|* bling|
w: ||||||
 D2 D2 E2 F2 | B A G F E2 ^c B | A G F2 d =c B A |1 G8- | G2 z2 z4 :|2 G8- | G2 z2 z4 |] %56
w: * I like it|just a lit- tle bit, just a|lit- tle bit, quite a lit- tle|bit."|_|bit."|_|
w: |||||||
V:2
!f!"^To My Musical Friends:-\n\"Stumbling\" is also written as a Piano solo a la Classique Jazz,\nand I hope you will like it as well as my \"Kitten On The Keys.\"\n                                                                     Zez Confrey."{/^C} ([GB][FA][EG][DF] [^CE]2) (!>![A^c][GB] | %1
 [FA][EG] [DF]2) (!>![Fd][Ec][DB][CA] | [B,G]2) E>D (3EGE D>E | (([B,G]4 !>![GBdg]2)) z2 |: %4
!mf! [B,DG] [B,DB]2 !>![DF]- [DF]2 [^CE]2 | [=CF] [CA]2 !>![CE]- [CE]2 [CD]2 :| %6
!mf! [B,DG] [B,DB]2 !>![B,DF]- [B,D]2 [B,D]2 | [B,DF] [B,DB]2 !>![B,DE]- [B,D]2 [B,D]2 | %8
 [B,D]2 [B,DF]2 [B,DG] [B,^EB]2 !>![CFc]- | c8 | [CEA] [CEc]2 !>![CEG]- [CE]2 [CE]2 | %11
 [CEG] [CEc]2 !>![CDF]- [CD]2 [CD]2 | [CE]2 [CF]2 [CFA] [DF^Ad]2 !>![B,FB]- | B8 | %14
 [B,DG] [B,DB]2 !>![B,DF]- [B,D]2 [B,D]2 | [B,DF] [B,DB]2 !>![B,DE]- [B,D]2 [B,D]2 | %16
 [B,D]2 [B,DF]2 [B,DG] [B,^EB]2 !>![DFA]- | A8 | [^CGB] [CG^c]2 !>![CGA]- A4 | %19
 [DFB] [DFd]2 !>![^DA]- A4 | [B,EG] [B,EB]2 !>![A,^CF]- [A,CF]2 [G,CE]2 | %21
 !>![F,=CE]4 !>![=G,_D_E]4 |:!mf! (!>!DE).G.A B2 (!>!DE) | .G.A B2 (!>!DE).G.A | (B4 e4) | %25
 (c4 B4) | (!>![^CA]^G=GF E2) (!>!A^G | =GF E2) !>!A^G=GF | z2 [GB]>A .[GB].A.[GB][G^c]- | %29
 [Gc]2 !tenuto![^CE]2 !tenuto![CG]2 !tenuto![CE]2 | [=CE] [CDF]2 !>![CDF]- [CDF]>DE>^E | %31
 F2 !tenuto![CF]2 !tenuto![CFA]2 !tenuto![CF]2 | [B,F] [EG]2 !>![EG]- [EG]>^DE>F | %33
 G2 !tenuto![B,EG]2 !tenuto![EGB]2 !tenuto![B,EG]2 | [^CG] A2 !>![CGA]- A4- | %35
 A2!<(! !tenuto![^CGA]2 !tenuto![CG^c]2 !tenuto![CGA]2!<)! | d8- | d2 [EF=c]2 [CFA]2 [^A,DF]2 | %38
 (!>!DE).G.A B2 (!>!DE) | .G.A B2 (!>!DE).G.A | (B4 e4) | (c4 B4) | (!>![^CA]^G=GF E2) (!>!A^G | %43
 =GF E2) !>!A^G=GF | z2 [G,B,]>A, [G,B,]A,[G,B,][G,^C]- | [G,C]2 [^CGB]2 [CGB] [CGA]2 !>![=CG=c]- | %46
 c4 _E4- | E2 [C_EGc]2 [CGAc] [CGAc]2 !>![B,DGB]- | B4 D4- | %49
 D2!<(! !tenuto![G,D]2 !tenuto![B,E]2 !tenuto![DG]2!<)! | %50
{/^C} (!>![GB][FA][EG][DF] [^CE]2) (!>![A^c][GB] | [FA][EG] [DF]2) !>![Fd][Ec][DB][CA] |1 %52
 [B,G]2 (E>D (3EGE D>E | [B,G]2) !>![A,CF]2 !>![A,CE]2 !>![A,C_E]2 :|2 [B,G]2 (E>D (3EGE D>E | %55
 (([B,G]4) !>![GBdg]2)) z2 |] %56
V:3
 !>![E,,E,]2 [G,A,^C]2 A,,2 !>![G,A,C]2 | [D,,D,]2 [D,F,=C]2 !>!D,,2 [D,F,C]2 | %2
 [G,,G,]2 [B,,G,]2 [_B,,G,]2 [A,,F,]2 | [G,,G,]2 !>![D,,D,]2 !>![G,,,G,,]2 z2 |: %4
 [G,,D,]3 [B,,B,]- [B,,B,]2 [_B,,_B,]2 | [A,,A,]3 [D,G,]- [D,G,]2 [D,F,]2 :| %6
 [G,,D,]2 z2 [D,,D,]2 z2 | [G,,D,]2 z2 [D,,D,]2 z2 | [G,,D,]2 z2 [D,,D,]2 [^G,,^G,]2 | %9
 [A,,A,]2 [D,F,C]2 [D,,D,]2 [D,F,C]2 | [A,,A,]2 z2 [D,,D,]2 z2 | [A,,A,]2 z2 [D,,D,]2 z2 | %12
 [A,,A,]2 z2 [D,,D,]2 z2 | [G,,D,]2 [D,G,B,]2 D,,2 [D,G,]2 | [G,,D,]2 z2 [D,,D,]2 z2 | %15
 [G,,D,]2 z2 [D,,D,]2 z2 | [G,,D,]2 z2 [D,,D,]2 [^G,,^G,]2 | %17
 [A,,A,]2 [=G,,=G,]2 [F,,F,]2 [=F,,=F,]2 | [E,,E,]2 z2 [A,,,A,,]2 A,2 | %19
 [D,A,]2 z2 [B,,,B,,]2 B,,2 | [E,,E,]2 z2 [A,,,A,,]2 A,,2 | !>![D,,A,,]4 !>![_E,,_B,,]4 |: %22
 !>![G,,D,]2 [D,G,B,]2 D,,2 !>![D,G,B,]2 | G,,2 [D,G,B,]2 !>!D,,2 [D,G,B,]2 | %24
 G,,2 [D,G,B,]2 [=F,,=F,]4 | [E,,E,]4 E,4 | [A,,E,]2 [G,A,^C]2 [A,,,A,,]2 [G,A,C]2 | %27
 [E,,E,]2 [G,A,^C]2 [A,,,A,,]2 [G,A,C]2 | [^C,,^C,]2 [G,A,^C]2 A,,2 [G,A,C]2 | %29
 [E,,E,]2 z2 [A,,,A,,]2 z2 | [D,,D,]2 z2 D,,>(F,G,>^G, | A,2) z2 [D,,D,]2 [^D,,^D,]2 | %32
 [E,,E,]2 z2 E,,>(F,G,>A, | B,2) z2 [E,,E,]2 z2 | [A,,E,]2 z2 [A,,,A,,]>(A,B,>^B, | %35
 ^C2) z2 [A,,E,]4 | [D,,D,]8- | [D,,D,]2 z2 [D,,D,]2 D,2 | %38
 !>![G,,D,]2 [D,G,B,]2 D,,2 !>![D,G,B,]2 | G,,2 [D,G,B,]2 !>!D,,2 [D,G,B,]2 | %40
 G,,2 [D,G,B,]2 [=F,,=F,]4 | [E,,E,]4 E,4 | [A,,E,]2 [G,A,^C]2 [A,,,A,,]2 [G,A,C]2 | %43
 [E,,E,]2 [G,A,^C]2 [A,,,A,,]2 [G,A,C]2 | [^C,,^C,]2 z2 [A,,,A,,]2 z2 | [E,,E,]2 z2 [A,,,A,,]2 z2 | %46
 [_E,,_E,]4 [C,,C,]4 | [A,,,A,,]2 z2 [_E,,_E,]4 | [D,,D,]4 [C,,C,]4 | %49
 [B,,,B,,]2 z2 !tenuto![G,,,G,,]4 | !>![E,,E,]2 [G,A,^C]2 A,,2 !>![G,A,C]2 | %51
 [D,,D,]2 [D,F,=C]2 !>!D,,2 [D,F,C]2 |1 [G,,G,]2 [B,,G,]2 [_B,,G,]2 [A,,F,]2 | %53
 [G,,G,]2 !>![D,,D,]2 !>![E,,E,]2 !>![F,,F,]2 :|2 [G,,G,]2 [B,,G,]2 [_B,,G,]2 [A,,F,]2 | %55
 [G,,G,]2 !>![D,,D,]2 !>![G,,,G,,]2 z2 |] %56
V:4
 x8 | x8 | x4 ^C2 =C2 | x8 |: x8 | x8 :| x4 F4 | x4 E4 | x8 | [CF]2 (=E>D F>DE>D) | x4 G4 | x4 F4 | %12
 x8 | [B,F]2 (E>F E>DB,>D) | x4 F4 | x4 E4 | x8 | [DF]2 [^C=E]2 [A,D]2 [B,D]2 | %18
 x4 [CG]>^D[^CE]>^E | x4 D>B,^C>^D | x8 | x8 |: x8 | x8 | z2 [DG]2 z2 [DGB]2 | z2 [D^G]2 z2 [DG]2 | %26
 x8 | x8 | E8- | E2 x6 | x8 | x8 | x8 | x8 | x4 [CG]>(^CD>^D | E2) x6 | %36
 [DF]2 [DF]2 [EG] [^E^G]2 [FA]- | [FA]2 x6 | x8 | x8 | z2 [DG]2 z2 [DGB]2 | z2 [D^G]2 z2 [DG]2 | %42
 x8 | x8 | E8- | E2 x6 | [CG]2 [CG][CG] z2 [G,A,][G,A,] | x8 | [B,DG]2 [B,DG]2 [F,A,]2 [F,A,]2 | %49
 G,2 x6 | x8 | x8 |1 x4 ^C2 =C2 | x8 :|2 x4 ^C2 =C2 | x8 |] %56
V:5
 x8 | x8 | x8 | x8 |: x8 | x8 :| x8 | x8 | x8 | x8 | x8 | x8 | x8 | x8 | x8 | x8 | x8 | x8 | x8 | %19
 x8 | x8 | x8 |: x8 | x8 | x8 | x8 | x8 | x8 | x8 | x8 | x8 | x8 | x8 | x8 | x8 | x8 | %36
 z2 !>!A,2 !>!_B, !>!=B,2 !>!=C- | C2 x6 | x8 | x8 | x8 | x8 | x8 | x8 | x8 | x8 | x8 | x8 | x8 | %49
 x8 | x8 | x8 |1 x8 | x8 :|2 x8 | x8 |] %56

